svgs/sharp-regular/face-expressionless.svg

<svg xmlns="http://www.w3.org/2000/svg" viewBox="0 0 512 512"><!--! Font Awesome Pro 6.6.0 by @fontawesome - https://fontawesome.com License - https://fontawesome.com/license (Commercial License) Copyright 2024 Fonticons, Inc. --><path d="M464 256A208 208 0 1 0 48 256a208 208 0 1 0 416 0zM0 256a256 256 0 1 1 512 0A256 256 0 1 1 0 256zm160 72l192 0 24 0 0 48-24 0-192 0-24 0 0-48 24 0zM128 192l16 0 64 0 16 0 0 32-16 0-64 0-16 0 0-32zm176 0l64 0 16 0 0 32-16 0-64 0-16 0 0-32 16 0z"/></svg>

<svg xmlns="http://www.w3.org/2000/svg" viewBox="0 0 512 512"><!--! Font Awesome Pro 6.4.0 by @fontawesome - https://fontawesome.com License - https://fontawesome.com/license (Commercial License) Copyright 2023 Fonticons, Inc. --><path d="M464 256A208 208 0 1 0 48 256a208 208 0 1 0 416 0zM0 256a256 256 0 1 1 512 0A256 256 0 1 1 0 256zm160 72H352h24v48H352 160 136V328h24zM128 192h16 64 16v32H208 144 128V192zm176 0h64 16v32H368 304 288V192h16z"/></svg>
